src/ui/components/page/linkedin.svg

<?xml version="1.0" encoding="UTF-8" standalone="no"?>
<svg width="23px" height="25px" viewBox="0 0 23 25" version="1.1" xmlns="http://www.w3.org/2000/svg" xmlns:xlink="http://www.w3.org/1999/xlink" xmlns:sketch="http://www.bohemiancoding.com/sketch/ns">
    <!-- Generator: Sketch 3.2 (9961) - http://www.bohemiancoding.com/sketch -->
    <title>Group</title>
    <desc>Created with Sketch.</desc>
    <defs></defs>
    <g id="Page-1" stroke="none" stroke-width="1" fill="none" fill-rule="evenodd" sketch:type="MSPage">
        <g id="desktop" sketch:type="MSLayerGroup" transform="translate(-1194.000000, -60.000000)" fill="#F5F5F5">
            <g id="home" sketch:type="MSShapeGroup">
                <g id="share" transform="translate(1118.000000, 62.000000)">
                    <g id="1421380137_linkedin" transform="translate(78.000000, 2.057850)">
                        <g id="Group" transform="translate(0.000000, -2.800000)">
                            <path d="M11.9,7 L11.9,9.1 C12.481,7.9996 13.9839,7 16.1,7 C20.5037,7 21,9.5312 21,13.3 L21,21 L16.8,21 L16.8,14 C16.8,12.3774 16.9316,10.5 14.7,10.5 C11.9,10.5 11.9,12.1751 11.9,14 L11.9,21 L7.7,21 L7.7,7 L11.9,7 Z" id="n"></path>
                            <rect id="_x7C_" x="0.7" y="7" width="4.2" height="14"></rect>
                            <circle id="_x28____x29_" cx="2.8" cy="2.45" r="2.45"></circle>
                        </g>
                    </g>
                </g>
            </g>
        </g>
    </g>
</svg>

<svg width="23" height="25" viewBox="0 0 23 25" xmlns="http://www.w3.org/2000/svg"><title>Group</title><desc>Created with Sketch.</desc><g transform="translate(2 1.258)" fill="#F5F5F5" fill-rule="evenodd"><path d="M11.9 7v2.1C12.48 8 13.984 7 16.1 7c4.404 0 4.9 2.53 4.9 6.3V21h-4.2v-7c0-1.623.132-3.5-2.1-3.5-2.8 0-2.8 1.675-2.8 3.5v7H7.7V7h4.2zM.7 7h4.2v14H.7z"/><circle cx="2.8" cy="2.45" r="2.45"/></g></svg>
